doc/scenarios/svg/A propos.svg

<?xml version="1.0" encoding="UTF-8" standalone="no"?>
<!-- Created with Inkscape (http://www.inkscape.org/) -->

<svg
     xmlns:dc="http://purl.org/dc/elements/1.1/"
     xmlns:cc="http://creativecommons.org/ns#"
     xmlns:rdf="http://www.w3.org/1999/02/22-rdf-syntax-ns#"
     xmlns:svg="http://www.w3.org/2000/svg"
     xmlns="http://www.w3.org/2000/svg"
     version="1.0"
     width="560"
     height="600"
     id="svg2">
    <defs
         id="defs4">
        <marker
             refX="0"
             refY="0"
             orient="auto"
             id="Scissors"
             style="overflow:visible">
            <path
                 d="M 9.0898857,-3.6061018 C 8.1198849,-4.7769976 6.3697607,-4.7358294 5.0623558,-4.2327734 l -8.2124046,3.0779029 c -2.3882933,-1.3067135 -4.7482873,-0.9325372 -4.7482873,-1.5687873 0,-0.4973164 0.4566662,-0.3883222 0.3883068,-1.6831941 -0.065635,-1.2432767 -1.3635771,-2.1630796 -2.5903987,-2.0816435 -1.227271,-0.00735 -2.499439,0.9331613 -2.510341,2.2300611 -0.09143,1.3063864 1.007209,2.5196896 2.306764,2.6052316 1.5223406,0.2266616 4.218258,-0.6955566 5.482945,1.57086006 -0.9422847,1.73825774 -2.6140244,1.74307674 -4.1255107,1.65607034 -1.2548743,-0.072235 -2.7620933,0.2873979 -3.3606483,1.5208605 -0.578367,1.1820862 -0.0112,2.8646022 1.316749,3.226412 1.3401912,0.4918277 3.1806689,-0.129711 3.4993722,-1.6707242 0.2456585,-1.187823 -0.5953659,-1.7459574 -0.2725074,-2.1771537 0.2436135,-0.32536 1.7907806,-0.1368452 4.5471053,-1.3748244 L 5.6763468,4.2330688 C 6.8000164,4.5467672 8.1730685,4.5362646 9.1684433,3.4313614 L -0.05164093,-0.05372222 9.0898857,-3.6061018 z m -18.3078016,-1.900504 c 1.294559,0.7227998 1.1888392,2.6835702 -0.1564272,3.0632889 -1.2165179,0.423661 -2.7710269,-0.7589694 -2.3831779,-2.0774648 0.227148,-1.0818519 1.653387,-1.480632 2.5396051,-0.9858241 l 0,0 z m 0.056264,8.0173649 c 1.3508301,0.4988648 1.1214429,2.7844356 -0.2522207,3.091609 -0.9110594,0.3163391 -2.2135494,-0.1387976 -2.3056964,-1.2121394 -0.177609,-1.305055 1.356085,-2.4841482 2.5579171,-1.8794696 l 0,0 z"
                 id="schere"
                 style="marker-start:none" />
        </marker>
        <marker
             refX="0"
             refY="0"
             orient="auto"
             id="Torso"
             style="overflow:visible">
            <g
                 transform="scale(0.7,0.7)"
                 id="g5959">
                <path
                     d="m -4.7792281,-3.239542 c 2.350374,0.3659393 5.30026732,1.9375477 5.03715532,3.62748546 C -0.00518779,2.0778819 -2.2126741,2.6176539 -4.5630471,2.2517169 -6.9134221,1.8857769 -8.521035,0.75201414 -8.257922,-0.93792336 -7.994809,-2.6278615 -7.1296041,-3.6054813 -4.7792281,-3.239542 z"
                     id="path5961"
                     style="fill:none;stroke:#000000;stroke-width:1.25;marker-start:none;marker-mid:none;marker-end:none" />
                <path
                     d="M 4.4598789,0.08866574 C -2.5564571,-4.378332 5.2248769,-3.9061806 -0.84829578,-8.7197331"
                     id="path5963"
                     style="fill:none;stroke:#000000;stroke-width:1pt;marker-end:none" />
                <path
                     d="M 4.9298719,0.05752074 C -1.3872731,1.7494689 1.8027579,5.4782079 -4.9448731,7.5462725"
                     id="path5965"
                     style="fill:none;stroke:#000000;stroke-width:1pt;marker-start:none;marker-end:none" />
                <rect
                     width="2.6366582"
                     height="2.7608147"
                     x="-10.391706"
                     y="-1.7408575"
                     transform="matrix(0.527536,-0.849533,0.887668,0.460484,0,0)"
                     id="rect5967"
                     style="fill-rule:evenodd;stroke-width:1pt;marker-end:none" />
                <rect
                     width="2.7327356"
                     height="2.8614161"
                     x="4.9587269"
                     y="-7.9629307"
                     transform="matrix(0.671205,-0.741272,0.790802,0.612072,0,0)"
                     id="rect5969"
                     style="fill-rule:evenodd;stroke-width:1pt;marker-end:none" />
                <path
                     d="m 16.779951,-28.685045 c 3.16e-4,0.335636 -0.271681,0.60789 -0.607317,0.60789 -0.335636,0 -0.607633,-0.272254 -0.607317,-0.60789 -3.16e-4,-0.335636 0.271681,-0.60789 0.607317,-0.60789 0.335636,0 0.607633,0.272254 0.607317,0.60789 z"
                     transform="matrix(0,-1.109517,1.109517,0,25.96648,19.71619)"
                     id="path5971"
                     style="fill:#ff0000;fill-opacity:0.75;fill-rule:evenodd;stroke:#000000;stroke-width:1pt;marker-start:none;marker-end:none" />
                <path
                     d="m 16.779951,-28.685045 c 3.16e-4,0.335636 -0.271681,0.60789 -0.607317,0.60789 -0.335636,0 -0.607633,-0.272254 -0.607317,-0.60789 -3.16e-4,-0.335636 0.271681,-0.60789 0.607317,-0.60789 0.335636,0 0.607633,0.272254 0.607317,0.60789 z"
                     transform="matrix(0,-1.109517,1.109517,0,26.8245,16.99126)"
                     id="path5973"
                     style="fill:#ff0000;fill-opacity:0.75;fill-rule:evenodd;stroke:#000000;stroke-width:1pt;marker-start:none;marker-end:none" />
            </g>
        </marker>
        <marker
             refX="0"
             refY="0"
             orient="auto"
             id="TriangleInM"
             style="overflow:visible">
            <path
                 d="m 5.77,0 -8.65,5 0,-10 8.65,5 z"
                 transform="scale(-0.4,-0.4)"
                 id="path5883"
                 style="fill-rule:evenodd;stroke:#000000;stroke-width:1pt;marker-start:none" />
        </marker>
        <marker
             refX="0"
             refY="0"
             orient="auto"
             id="Arrow2Mstart"
             style="overflow:visible">
            <path
                 d="M 8.7185878,4.0337352 -2.2072895,0.01601326 8.7185884,-4.0017078 c -1.7454984,2.3720609 -1.7354408,5.6174519 -6e-7,8.035443 l 0,0 z"
                 transform="scale(0.6,0.6)"
                 id="path5770"
                 style="font-size:12px;fill-rule:evenodd;stroke-width:0.625;stroke-linejoin:round" />
        </marker>
        <marker
             refX="0"
             refY="0"
             orient="auto"
             id="Arrow1Lstart"
             style="overflow:visible">
            <path
                 d="M 0,0 5,-5 -12.5,0 5,5 0,0 z"
                 transform="matrix(0.8,0,0,0.8,10,0)"
                 id="path5746"
                 style="fill-rule:evenodd;stroke:#000000;stroke-width:1pt;marker-start:none" />
        </marker>
    </defs>
    <metadata
         id="metadata7">
        <rdf:RDF>
            <cc:Work
                 rdf:about="">
                <dc:format>image/svg+xml</dc:format>
                <dc:type
                     rdf:resource="http://purl.org/dc/dcmitype/StillImage" />
                <dc:title></dc:title>
            </cc:Work>
        </rdf:RDF>
    </metadata>
    <g
         transform="translate(70.570249,-53.444978)"
         id="layer1">
        <rect
             width="355.04434"
             height="595.04431"
             ry="30.646187"
             x="31.907581"
             y="55.922836"
             id="rect2385"
             style="fill:#ffffff;fill-opacity:1;fill-rule:evenodd;stroke:#000000;stroke-width:4.95566034;stroke-linecap:butt;stroke-linejoin:miter;stroke-miterlimit:4;stroke-opacity:1;stroke-dasharray:none" />
        <text
             x="125.7143"
             y="575.21936"
             id="text5705"
             xml:space="preserve"
             style="font-size:40px;font-style:normal;font-variant:normal;font-weight:normal;font-stretch:normal;fill:#000000;fill-opacity:1;stroke:none;font-family:Serif;-inkscape-font-specification:Serif"><tspan
                 x="125.7143"
                 y="575.21936"
                 id="tspan5707" /></text>
        <text
             x="178.57141"
             y="269.505"
             id="text5709"
             xml:space="preserve"
             style="font-size:40px;font-style:normal;font-variant:normal;font-weight:normal;font-stretch:normal;fill:#000000;fill-opacity:1;stroke:none;font-family:Sans;-inkscape-font-specification:Sans"><tspan
                 x="178.57141"
                 y="269.505"
                 id="tspan5711" /></text>
        <text
             x="408.57144"
             y="335.2193"
             id="text10915"
             xml:space="preserve"
             style="font-size:40px;font-style:normal;font-variant:normal;font-weight:normal;font-stretch:normal;fill:#000000;fill-opacity:1;stroke:none;font-family:Sans;-inkscape-font-specification:Sans"><tspan
                 x="408.57144"
                 y="335.2193"
                 id="tspan10917" /></text>
        <text
             x="-30.57025"
             y="153.44498"
             id="text10923"
             xml:space="preserve"
             style="font-size:32px;font-style:normal;font-variant:normal;font-weight:normal;font-stretch:normal;fill:#000000;fill-opacity:1;stroke:none;font-family:Utopia;-inkscape-font-specification:Utopia"><tspan
                 x="-30.57025"
                 y="153.44498"
                 id="tspan10925">1</tspan></text>
        <text
             x="429.42975"
             y="303.44498"
             id="text10927"
             xml:space="preserve"
             style="font-size:32px;font-style:normal;font-variant:normal;font-weight:normal;font-stretch:normal;fill:#000000;fill-opacity:1;stroke:none;font-family:Utopia;-inkscape-font-specification:Utopia"><tspan
                 x="429.42975"
                 y="303.44498"
                 id="tspan10929">2</tspan></text>
        <path
             d="M 150,90 60,90"
             transform="translate(-70.570249,53.444978)"
             id="path3234"
             style="fill:none;stroke:#000000;stroke-width:2;stroke-linecap:butt;stroke-linejoin:miter;stroke-miterlimit:4;stroke-opacity:1;stroke-dasharray:8, 8;stroke-dashoffset:0;marker-start:url(#Arrow2Mstart)" />
        <rect
             width="120"
             height="30"
             ry="15"
             x="120"
             y="550"
             transform="translate(-70.570249,53.444978)"
             id="rect3696"
             style="fill:#ffffff;fill-opacity:1;stroke:#000000;stroke-width:2;stroke-miterlimit:4;stroke-opacity:1;stroke-dasharray:none;stroke-dashoffset:0" />
        <text
             x="69.429749"
             y="623.44501"
             id="text3714"
             xml:space="preserve"
             style="font-size:24px;font-style:normal;font-weight:normal;fill:#000000;fill-opacity:1;stroke:none;font-family:Bitstream Vera Sans"><tspan
                 x="69.429749"
                 y="623.44501"
                 id="tspan3716">Retour</tspan></text>
        <rect
             width="320"
             height="430"
             x="120"
             y="110"
             transform="translate(-70.570249,53.444978)"
             id="rect2870"
             style="fill:#ffffff;fill-opacity:1;stroke:#000000;stroke-width:2;stroke-miterlimit:4;stroke-opacity:1;stroke-dasharray:none;stroke-dashoffset:0" />
        <path
             d="m 359,241 141,-1"
             transform="translate(-70.570249,53.444978)"
             id="path3720"
             style="fill:none;stroke:#000000;stroke-width:2;stroke-linecap:butt;stroke-linejoin:miter;stroke-miterlimit:4;stroke-opacity:1;stroke-dasharray:8, 8;stroke-dashoffset:0;marker-start:url(#Arrow2Mstart)" />
        <path
             d="m 140,560 -80,0"
             transform="translate(-70.570249,53.444978)"
             id="path3726"
             style="fill:none;stroke:#000000;stroke-width:2;stroke-linecap:butt;stroke-linejoin:miter;stroke-miterlimit:4;stroke-opacity:1;stroke-dasharray:8, 8;stroke-dashoffset:0;marker-start:url(#Arrow2Mstart)" />
        <text
             x="-30.57025"
             y="623.44501"
             id="text3927"
             xml:space="preserve"
             style="font-size:32px;font-style:normal;font-variant:normal;font-weight:normal;font-stretch:normal;fill:#000000;fill-opacity:1;stroke:none;font-family:Utopia;-inkscape-font-specification:Utopia"><tspan
                 x="-30.57025"
                 y="623.44501"
                 id="tspan3929">3</tspan></text>
    </g>
</svg>

<?xml version="1.0" encoding="UTF-8" standalone="no"?>
<!-- Created with Inkscape (http://www.inkscape.org/) -->

<svg
   xmlns:dc="http://purl.org/dc/elements/1.1/"
   xmlns:cc="http://creativecommons.org/ns#"
   xmlns:rdf="http://www.w3.org/1999/02/22-rdf-syntax-ns#"
   xmlns:svg="http://www.w3.org/2000/svg"
   xmlns="http://www.w3.org/2000/svg"
   xmlns:sodipodi="http://sodipodi.sourceforge.net/DTD/sodipodi-0.dtd"
   xmlns:inkscape="http://www.inkscape.org/namespaces/inkscape"
   version="1.0"
   width="560"
   height="600"
   id="svg2"
   sodipodi:version="0.32"
   inkscape:version="0.47 r22583"
   inkscape:output_extension="org.inkscape.output.svg.inkscape"
   sodipodi:docname="A propos.svg">
  <sodipodi:namedview
     inkscape:window-height="856"
     inkscape:window-width="1081"
     inkscape:pageshadow="2"
     inkscape:pageopacity="0.0"
     guidetolerance="10.0"
     gridtolerance="10.0"
     objecttolerance="10.0"
     borderopacity="1.0"
     bordercolor="#666666"
     pagecolor="#ffffff"
     id="base"
     showgrid="true"
     inkscape:zoom="1"
     inkscape:cx="293.57312"
     inkscape:cy="325.44239"
     inkscape:window-x="359"
     inkscape:window-y="0"
     inkscape:current-layer="layer1"
     inkscape:window-maximized="0">
    <inkscape:grid
       type="xygrid"
       id="grid3232"
       visible="true"
       enabled="true" />
  </sodipodi:namedview>
  <defs
     id="defs4">
    <inkscape:perspective
       sodipodi:type="inkscape:persp3d"
       inkscape:vp_x="0 : 338.67999 : 1"
       inkscape:vp_y="0 : 1000 : 0"
       inkscape:vp_z="468.09 : 338.67999 : 1"
       inkscape:persp3d-origin="234.045 : 225.78666 : 1"
       id="perspective38" />
    <marker
       refX="0"
       refY="0"
       orient="auto"
       id="Scissors"
       style="overflow:visible">
      <path
         d="M 9.0898857,-3.6061018 C 8.1198849,-4.7769976 6.3697607,-4.7358294 5.0623558,-4.2327734 L -3.1500488,-1.1548705 C -5.5383421,-2.461584 -7.8983361,-2.0874077 -7.8983361,-2.7236578 C -7.8983361,-3.2209742 -7.4416699,-3.11198 -7.5100293,-4.4068519 C -7.5756643,-5.6501286 -8.8736064,-6.5699315 -10.100428,-6.4884954 C -11.327699,-6.4958454 -12.599867,-5.5553341 -12.610769,-4.2584343 C -12.702199,-2.9520479 -11.60356,-1.7387447 -10.304005,-1.6532027 C -8.7816644,-1.4265411 -6.085747,-2.3487593 -4.82106,-0.08234264 C -5.7633447,1.6559151 -7.4350844,1.6607341 -8.9465707,1.5737277 C -10.201445,1.5014927 -11.708664,1.8611256 -12.307219,3.0945882 C -12.885586,4.2766744 -12.318419,5.9591904 -10.99047,6.3210002 C -9.6502788,6.8128279 -7.8098011,6.1912892 -7.4910978,4.650276 C -7.2454393,3.462453 -8.0864637,2.9043186 -7.7636052,2.4731223 C -7.5199917,2.1477623 -5.9728246,2.3362771 -3.2164999,1.0982979 L 5.6763468,4.2330688 C 6.8000164,4.5467672 8.1730685,4.5362646 9.1684433,3.4313614 L -0.05164093,-0.05372222 L 9.0898857,-3.6061018 z M -9.2179159,-5.5066058 C -7.9233569,-4.783806 -8.0290767,-2.8230356 -9.3743431,-2.4433169 C -10.590861,-2.0196559 -12.14537,-3.2022863 -11.757521,-4.5207817 C -11.530373,-5.6026336 -10.104134,-6.0014137 -9.2179159,-5.5066058 L -9.2179159,-5.5066058 z M -9.1616519,2.5107591 C -7.8108218,3.0096239 -8.040209,5.2951947 -9.4138726,5.6023681 C -10.324932,5.9187072 -11.627422,5.4635705 -11.719569,4.3902287 C -11.897178,3.0851737 -10.363484,1.9060805 -9.1616519,2.5107591 L -9.1616519,2.5107591 z"
         id="schere"
         style="marker-start:none" />
    </marker>
    <marker
       refX="0"
       refY="0"
       orient="auto"
       id="Torso"
       style="overflow:visible">
      <g
         transform="scale(0.7,0.7)"
         id="g5959">
        <path
           d="M -4.7792281,-3.239542 C -2.4288541,-2.8736027 0.52103922,-1.3019943 0.25792722,0.38794346 C -0.00518779,2.0778819 -2.2126741,2.6176539 -4.5630471,2.2517169 C -6.9134221,1.8857769 -8.521035,0.75201414 -8.257922,-0.93792336 C -7.994809,-2.6278615 -7.1296041,-3.6054813 -4.7792281,-3.239542 z"
           id="path5961"
           style="fill:none;stroke:#000000;stroke-width:1.25;marker-start:none;marker-mid:none;marker-end:none" />
        <path
           d="M 4.4598789,0.08866574 C -2.5564571,-4.378332 5.2248769,-3.9061806 -0.84829578,-8.7197331"
           id="path5963"
           style="fill:none;stroke:#000000;stroke-width:1pt;marker-end:none" />
        <path
           d="M 4.9298719,0.05752074 C -1.3872731,1.7494689 1.8027579,5.4782079 -4.9448731,7.5462725"
           id="path5965"
           style="fill:none;stroke:#000000;stroke-width:1pt;marker-start:none;marker-end:none" />
        <rect
           width="2.6366582"
           height="2.7608147"
           x="-10.391706"
           y="-1.7408575"
           transform="matrix(0.527536,-0.849533,0.887668,0.460484,0,0)"
           id="rect5967"
           style="fill-rule:evenodd;stroke-width:1pt;marker-end:none" />
        <rect
           width="2.7327356"
           height="2.8614161"
           x="4.9587269"
           y="-7.9629307"
           transform="matrix(0.671205,-0.741272,0.790802,0.612072,0,0)"
           id="rect5969"
           style="fill-rule:evenodd;stroke-width:1pt;marker-end:none" />
        <path
           d="M 16.779951,-28.685045 C 16.780267,-28.349409 16.50827,-28.077155 16.172634,-28.077155 C 15.836998,-28.077155 15.565001,-28.349409 15.565317,-28.685045 C 15.565001,-29.020681 15.836998,-29.292935 16.172634,-29.292935 C 16.50827,-29.292935 16.780267,-29.020681 16.779951,-28.685045 z"
           transform="matrix(0,-1.109517,1.109517,0,25.96648,19.71619)"
           id="path5971"
           style="fill:#ff0000;fill-opacity:0.75;fill-rule:evenodd;stroke:#000000;stroke-width:1pt;marker-start:none;marker-end:none" />
        <path
           d="M 16.779951,-28.685045 C 16.780267,-28.349409 16.50827,-28.077155 16.172634,-28.077155 C 15.836998,-28.077155 15.565001,-28.349409 15.565317,-28.685045 C 15.565001,-29.020681 15.836998,-29.292935 16.172634,-29.292935 C 16.50827,-29.292935 16.780267,-29.020681 16.779951,-28.685045 z"
           transform="matrix(0,-1.109517,1.109517,0,26.8245,16.99126)"
           id="path5973"
           style="fill:#ff0000;fill-opacity:0.75;fill-rule:evenodd;stroke:#000000;stroke-width:1pt;marker-start:none;marker-end:none" />
      </g>
    </marker>
    <marker
       refX="0"
       refY="0"
       orient="auto"
       id="TriangleInM"
       style="overflow:visible">
      <path
         d="M 5.77,0 L -2.88,5 L -2.88,-5 L 5.77,0 z"
         transform="scale(-0.4,-0.4)"
         id="path5883"
         style="fill-rule:evenodd;stroke:#000000;stroke-width:1pt;marker-start:none" />
    </marker>
    <marker
       refX="0"
       refY="0"
       orient="auto"
       id="Arrow2Mstart"
       style="overflow:visible">
      <path
         d="M 8.7185878,4.0337352 L -2.2072895,0.01601326 L 8.7185884,-4.0017078 C 6.97309,-1.6296469 6.9831476,1.6157441 8.7185878,4.0337352 L 8.7185878,4.0337352 z"
         transform="scale(0.6,0.6)"
         id="path5770"
         style="font-size:12px;fill-rule:evenodd;stroke-width:0.625;stroke-linejoin:round" />
    </marker>
    <marker
       refX="0"
       refY="0"
       orient="auto"
       id="Arrow1Lstart"
       style="overflow:visible">
      <path
         d="M 0,0 L 5,-5 L -12.5,0 L 5,5 L 0,0 z"
         transform="matrix(0.8,0,0,0.8,10,0)"
         id="path5746"
         style="fill-rule:evenodd;stroke:#000000;stroke-width:1pt;marker-start:none" />
    </marker>
  </defs>
  <metadata
     id="metadata7">
    <rdf:RDF>
      <cc:Work
         rdf:about="">
        <dc:format>image/svg+xml</dc:format>
        <dc:type
           rdf:resource="http://purl.org/dc/dcmitype/StillImage" />
        <dc:title />
      </cc:Work>
    </rdf:RDF>
  </metadata>
  <g
     id="layer1"
     transform="translate(70.570249,-53.444978)">
    <rect
       width="355.04434"
       height="595.04431"
       ry="30.646187"
       x="31.907581"
       y="55.922836"
       id="rect2385"
       style="fill:#ffffff;fill-opacity:1;fill-rule:evenodd;stroke:#000000;stroke-width:4.95566034;stroke-linecap:butt;stroke-linejoin:miter;stroke-miterlimit:4;stroke-dasharray:none;stroke-opacity:1" />
    <text
       x="125.7143"
       y="575.21936"
       id="text5705"
       xml:space="preserve"
       style="font-size:40px;font-style:normal;font-variant:normal;font-weight:normal;font-stretch:normal;fill:#000000;fill-opacity:1;stroke:none;font-family:Serif;-inkscape-font-specification:Serif"><tspan
         x="125.7143"
         y="575.21936"
         id="tspan5707" /></text>
    <text
       x="178.57141"
       y="269.505"
       id="text5709"
       xml:space="preserve"
       style="font-size:40px;font-style:normal;font-variant:normal;font-weight:normal;font-stretch:normal;fill:#000000;fill-opacity:1;stroke:none;font-family:Sans;-inkscape-font-specification:Sans"><tspan
         x="178.57141"
         y="269.505"
         id="tspan5711" /></text>
    <text
       x="408.57144"
       y="335.2193"
       id="text10915"
       xml:space="preserve"
       style="font-size:40px;font-style:normal;font-variant:normal;font-weight:normal;font-stretch:normal;fill:#000000;fill-opacity:1;stroke:none;font-family:Sans;-inkscape-font-specification:Sans"><tspan
         x="408.57144"
         y="335.2193"
         id="tspan10917" /></text>
    <text
       x="-30.57025"
       y="153.44498"
       id="text10923"
       xml:space="preserve"
       style="font-size:32px;font-style:normal;font-variant:normal;font-weight:normal;font-stretch:normal;fill:#000000;fill-opacity:1;stroke:none;font-family:Utopia;-inkscape-font-specification:Utopia"><tspan
         x="-30.57025"
         y="153.44498"
         id="tspan10925">1</tspan></text>
    <text
       x="429.42975"
       y="253.44498"
       id="text10927"
       xml:space="preserve"
       style="font-size:32px;font-style:normal;font-variant:normal;font-weight:normal;font-stretch:normal;fill:#000000;fill-opacity:1;stroke:none;font-family:Utopia;-inkscape-font-specification:Utopia"><tspan
         x="429.42975"
         y="253.44498"
         id="tspan10929">2</tspan></text>
    <path
       style="fill:none;fill-rule:evenodd;stroke:#000000;stroke-width:2;stroke-linecap:butt;stroke-linejoin:miter;stroke-opacity:1;stroke-miterlimit:4;stroke-dasharray:8, 8;stroke-dashoffset:0;marker-start:url(#Arrow2Mstart)"
       d="M 150,90 L 60,90"
       id="path3234"
       transform="translate(-70.570249,53.444978)" />
    <rect
       style="fill:#ffffff;fill-opacity:1;stroke:#000000;stroke-width:2;stroke-miterlimit:4;stroke-opacity:1;stroke-dasharray:none;stroke-dashoffset:0"
       id="rect3696"
       width="120"
       height="30"
       x="120"
       y="550"
       transform="translate(-70.570249,53.444978)"
       ry="15" />
    <text
       xml:space="preserve"
       style="font-size:24px;font-style:normal;font-weight:normal;fill:#000000;fill-opacity:1;stroke:none;font-family:Bitstream Vera Sans"
       x="69.429749"
       y="623.44501"
       id="text3714"><tspan
         sodipodi:role="line"
         id="tspan3716"
         x="69.429749"
         y="623.44501">Retour</tspan></text>
    <path
       style="fill:none;stroke:#000000;stroke-width:2;stroke-linecap:butt;stroke-linejoin:miter;stroke-opacity:1;stroke-miterlimit:4;stroke-dasharray:8, 8;stroke-dashoffset:0;marker-start:url(#Arrow2Mstart)"
       d="m 140,560 -80,0"
       id="path3726"
       transform="translate(-70.570249,53.444978)" />
    <rect
       style="fill:#ffffff;fill-opacity:1;stroke:#000000;stroke-width:2;stroke-miterlimit:4;stroke-opacity:1;stroke-dasharray:none;stroke-dashoffset:0"
       id="rect2954"
       width="320"
       height="430"
       x="49.429752"
       y="163.44498"
       ry="0" />
    <path
       style="fill:none;stroke:#000000;stroke-width:2;stroke-linecap:butt;stroke-linejoin:miter;stroke-opacity:1;stroke-miterlimit:4;stroke-dasharray:8, 8;stroke-dashoffset:0;marker-start:url(#Arrow2Mstart)"
       d="m 390,190 110,0"
       id="path3779"
       transform="translate(-70.570249,53.444978)" />
    <text
       xml:space="preserve"
       style="font-size:32px;font-style:normal;font-variant:normal;font-weight:normal;font-stretch:normal;fill:#000000;fill-opacity:1;stroke:none;font-family:Utopia;-inkscape-font-specification:Utopia"
       x="-30.57025"
       y="623.44501"
       id="text3980"><tspan
         sodipodi:role="line"
         id="tspan3982"
         x="-30.57025"
         y="623.44501">3</tspan></text>
  </g>
</svg>
